X:1
T: The Boys of Cappoquin
C:
R:Reel
Q: 232
K:D
M:4/4
L:1/8
|:FD FA d2 cA|AB GA EF GE|FD FA d2 cA|((3ABc) GE ED D2|
FD FA d2 cA|AB GA EF GE|FD FA d2 cA|((3ABc) GE ED D2|
f1/2g1/2f1/2e1/2 fg fe df|ef gf ed cB|AB cd ef ge|fa ge ed d2|
f1/2g1/2f1/2e1/2 fg fe df|ed ef ed cB|AB cd ef ge|fa ge ed d2:|
